Yaru++/actions/16/distribute-horizontal-node.svg

<svg height="24" viewBox="0 0 24 24" width="24" xmlns="http://www.w3.org/2000/svg"><path d="m6.0030206 4.0011917v6.6677083h-1.3322395v1.329635h-.3333854-.3333855v.666771h.3333855.3333854v1.337448h1.0275044c-.1477097.973152-.2934663 1.937628-.4753347 2.786895-.2659283 1.24166-.6421383 2.225139-1.103037 2.6202a.33323208.33330543 0 0 0 -.1198104.264364.33323208.33330543 0 0 0 .5534719.242226c.7054436-.604761 1.0463782-1.701245 1.3218212-2.987446.1951639-.911476.3453165-1.920081.4974736-2.926239h1.6304631v-1.337448h2.0003128v1.337448h.959785c.000437.0027.000835.0051.0013.0078.230977 1.40682.532606 2.818874 1.122571 3.938116.589966 1.119241 1.52233 1.955913 2.891078 2.047194.543391.03601 1.027408-.165227 1.384331-.522217.356876-.356989.604098-.849762.798301-1.43512.358723-1.080169.532594-2.49888.673283-4.035787h1.501536v-1.337448h.664167v-.333371-.333386h-.333383-.330782v-1.329635h-1.211126c.06917-.7395156.145923-1.4708646.250039-2.1683076a.33323208.33330543 0 0 0 -.372454-.389383v-4.1100177h-.666771v1.6669272 5.0007811h-1.33224v1.329635h-2.667083v-1.329635h-1.333542v-5.0007811-1.6669272h-.666771v1.6669272 5.0007811h-.226598c-.04534-.23637-.09058-.472045-.143251-.6902116-.136688-.566355-.302212-1.065583-.540449-1.46898-.238171-.403396-.5698705-.723579-1.0092725-.833463-.5581539-.139489-1.0755952-.0722-1.4963276.171902-.4207325.244171-.7372673.642163-.9910403 1.122571-.096348.182362-.1780758.388646-.2591551.595145v-3.8977445-1.6669272zm.6667709 1.6669272 1.3335417 1.0209925v-.6876071h2.0003128v.6667711l1.332239-1.0001565-1.332239-1.0001564v.6667709h-2.0003128v-.6459343zm5.3328645 0 1.333542 1.0209925v-.6876071h2.667083v.6667711l1.33224-1.0001565-1.33224-1.0001564v.6667709h-2.667083v-.6459343zm-3.0447464 2.6045735c.092548.0078.1906648.02424.2969214.05079.2270954.05668.4155011.21624.5977496.524822.1822414.308648.3375654.754443.4662184 1.2866586.04014.165826.07475.352843.110695.533938h-.425848v1.329635h-2.0003128v-1.329636h-.9923425c.1454227-.53355.3099943-1.0121436.5078919-1.3869346.2169672-.410731.4638829-.699147.735792-.856905.2038986-.118419.4255916-.175705.703235-.152368zm4.3782884 4.3926136h2.667083v1.337448h1.160338c-.139462 1.499435-.315517 2.865369-.634213 3.826119-.175121.527883-.393417.928589-.638122 1.173361-.244704.244838-.49768.352846-.868625.328176-1.13051-.07534-1.822438-.696982-2.34672-1.691671-.511414-.970151-.80995-2.287107-1.035319-3.635985h1.695578z" fill="#808080"/></svg>

<svg xmlns="http://www.w3.org/2000/svg" width="24" height="24" version="1.1" viewBox="0 0 24 24">
 <defs>
  <style id="current-color-scheme" type="text/css">
   .ColorScheme-Text { color:#808080; } .ColorScheme-Highlight { color:#4285f4; }
  </style>
 </defs>
 <path style="fill:currentColor" class="ColorScheme-Text" d="M 6.0030206,4.0011917 V 10.6689 H 4.6707811 v 1.329635 H 4.3373957 4.0040102 v 0.666771 h 0.3333855 0.3333854 v 1.337448 h 1.0275044 c -0.1477097,0.973152 -0.2934663,1.937628 -0.4753347,2.786895 -0.2659283,1.24166 -0.6421383,2.225139 -1.103037,2.6202 a 0.33323208,0.33330543 0 0 0 -0.1198104,0.264364 0.33323208,0.33330543 0 0 0 0.5534719,0.242226 C 5.2590189,19.311678 5.5999535,18.215194 5.8753965,16.928993 6.0705604,16.017517 6.220713,15.008912 6.3728701,14.002754 h 1.6304631 v -1.337448 h 2.0003128 v 1.337448 h 0.959785 c 4.37e-4,0.0027 8.35e-4,0.0051 0.0013,0.0078 0.230977,1.40682 0.532606,2.818874 1.122571,3.938116 0.589966,1.119241 1.52233,1.955913 2.891078,2.047194 0.543391,0.03601 1.027408,-0.165227 1.384331,-0.522217 0.356876,-0.356989 0.604098,-0.849762 0.798301,-1.43512 0.358723,-1.080169 0.532594,-2.49888 0.673283,-4.035787 h 1.501536 v -1.337448 h 0.664167 V 12.331921 11.998535 H 19.666615 19.335833 V 10.6689 H 18.124707 C 18.193877,9.9293844 18.27063,9.1980354 18.374746,8.5005924 A 0.33323208,0.33330543 0 0 0 18.002292,8.1112094 V 4.0011917 H 17.335521 V 5.6681189 10.6689 h -1.33224 v 1.329635 H 13.336198 V 10.6689 H 12.002656 V 5.6681189 4.0011917 H 11.335885 V 5.6681189 10.6689 h -0.226598 c -0.04534,-0.23637 -0.09058,-0.472045 -0.143251,-0.6902116 -0.136688,-0.566355 -0.302212,-1.065583 -0.540449,-1.46898 -0.238171,-0.403396 -0.5698705,-0.723579 -1.0092725,-0.833463 -0.5581539,-0.139489 -1.0755952,-0.0722 -1.4963276,0.171902 -0.4207325,0.244171 -0.7372673,0.642163 -0.9910403,1.122571 -0.096348,0.182362 -0.1780758,0.388646 -0.2591551,0.595145 V 5.6681189 4.0011917 Z M 6.6697915,5.6681189 8.0033332,6.6891114 V 6.0015043 H 10.003646 V 6.6682754 L 11.335885,5.6681189 10.003646,4.6679625 V 5.3347334 H 8.0033332 V 4.6887991 Z m 5.3328645,0 1.333542,1.0209925 V 6.0015043 h 2.667083 v 0.6667711 l 1.33224,-1.0001565 -1.33224,-1.0001564 V 5.3347334 H 13.336198 V 4.6887991 Z M 8.9579096,8.2726924 c 0.092548,0.0078 0.1906648,0.02424 0.2969214,0.05079 0.2270954,0.05668 0.4155011,0.21624 0.5977496,0.524822 0.1822414,0.308648 0.3375654,0.754443 0.4662184,1.2866586 0.04014,0.165826 0.07475,0.352843 0.110695,0.533938 h -0.425848 v 1.329635 H 8.0033332 V 10.6689 H 7.0109907 C 7.1564134,10.13535 7.320985,9.6567564 7.5188826,9.2819654 c 0.2169672,-0.410731 0.4638829,-0.699147 0.735792,-0.856905 0.2038986,-0.118419 0.4255916,-0.175705 0.703235,-0.152368 z m 4.3782884,4.3926136 h 2.667083 v 1.337448 h 1.160338 c -0.139462,1.499435 -0.315517,2.865369 -0.634213,3.826119 -0.175121,0.527883 -0.393417,0.928589 -0.638122,1.173361 -0.244704,0.244838 -0.49768,0.352846 -0.868625,0.328176 -1.13051,-0.07534 -1.822438,-0.696982 -2.34672,-1.691671 -0.511414,-0.970151 -0.80995,-2.287107 -1.035319,-3.635985 h 1.695578 z"/>
</svg>
